packages/icons/src/rocket.svg

<svg width="15" height="15" viewBox="0 0 15 15" fill="none" xmlns="http://www.w3.org/2000/svg">
  <path
    fill-rule="evenodd"
    clip-rule="evenodd"
    d="M6.85357 3.85355L7.65355 3.05353C8.2981 2.40901 9.42858 1.96172 10.552 1.80125C11.1056 1.72217 11.6291 1.71725 12.0564 1.78124C12.4987 1.84748 12.7698 1.97696 12.8965 2.10357C13.0231 2.23018 13.1526 2.50125 13.2188 2.94357C13.2828 3.37086 13.2779 3.89439 13.1988 4.44801C13.0383 5.57139 12.591 6.70188 11.9464 7.34645L7.49999 11.7929L6.35354 10.6465C6.15827 10.4512 5.84169 10.4512 5.64643 10.6465C5.45117 10.8417 5.45117 11.1583 5.64643 11.3536L7.14644 12.8536C7.34171 13.0488 7.65829 13.0488 7.85355 12.8536L8.40073 12.3064L9.57124 14.2572C9.65046 14.3893 9.78608 14.4774 9.9389 14.4963C10.0917 14.5151 10.2447 14.4624 10.3535 14.3536L12.3535 12.3536C12.4648 12.2423 12.5172 12.0851 12.495 11.9293L12.0303 8.67679L12.6536 8.05355C13.509 7.19808 14.0117 5.82855 14.1887 4.58943C14.2784 3.9618 14.2891 3.33847 14.2078 2.79546C14.1287 2.26748 13.9519 1.74482 13.6035 1.39645C13.2552 1.04809 12.7325 0.871332 12.2045 0.792264C11.6615 0.710945 11.0382 0.721644 10.4105 0.8113C9.17143 0.988306 7.80189 1.491 6.94644 2.34642L6.32322 2.96968L3.07071 2.50504C2.91492 2.48278 2.75773 2.53517 2.64645 2.64646L0.646451 4.64645C0.537579 4.75533 0.484938 4.90829 0.50375 5.0611C0.522563 5.21391 0.61073 5.34954 0.742757 5.42876L2.69364 6.59928L2.14646 7.14645C2.0527 7.24022 2.00002 7.3674 2.00002 7.50001C2.00002 7.63261 2.0527 7.75979 2.14646 7.85356L3.64647 9.35356C3.84173 9.54883 4.15831 9.54883 4.35357 9.35356C4.54884 9.1583 4.54884 8.84172 4.35357 8.64646L3.20712 7.50001L3.85357 6.85356L6.85357 3.85355ZM10.0993 13.1936L9.12959 11.5775L11.1464 9.56067L11.4697 11.8232L10.0993 13.1936ZM3.42251 5.87041L5.43935 3.85356L3.17678 3.53034L1.80638 4.90074L3.42251 5.87041ZM2.35356 10.3535C2.54882 10.1583 2.54882 9.8417 2.35356 9.64644C2.1583 9.45118 1.84171 9.45118 1.64645 9.64644L0.646451 10.6464C0.451188 10.8417 0.451188 11.1583 0.646451 11.3535C0.841713 11.5488 1.1583 11.5488 1.35356 11.3535L2.35356 10.3535ZM3.85358 11.8536C4.04884 11.6583 4.04885 11.3417 3.85359 11.1465C3.65833 10.9512 3.34175 10.9512 3.14648 11.1465L1.14645 13.1464C0.95119 13.3417 0.951187 13.6583 1.14645 13.8535C1.34171 14.0488 1.65829 14.0488 1.85355 13.8536L3.85358 11.8536ZM5.35356 13.3535C5.54882 13.1583 5.54882 12.8417 5.35356 12.6464C5.1583 12.4512 4.84171 12.4512 4.64645 12.6464L3.64645 13.6464C3.45119 13.8417 3.45119 14.1583 3.64645 14.3535C3.84171 14.5488 4.1583 14.5488 4.35356 14.3535L5.35356 13.3535ZM9.49997 6.74881C10.1897 6.74881 10.7488 6.1897 10.7488 5.5C10.7488 4.8103 10.1897 4.25118 9.49997 4.25118C8.81026 4.25118 8.25115 4.8103 8.25115 5.5C8.25115 6.1897 8.81026 6.74881 9.49997 6.74881Z"
    fill="currentColor"
  />
</svg>

<svg xmlns="http://www.w3.org/2000/svg" width="15" height="15" fill="none"><path fill="currentColor" fill-rule="evenodd" d="m6.854 3.854.8-.8c.644-.645 1.775-1.092 2.898-1.253a5.3 5.3 0 0 1 1.504-.02c.443.066.714.196.84.323.127.126.257.397.323.84.064.427.059.95-.02 1.504-.16 1.123-.608 2.254-1.253 2.898L7.5 11.793l-1.146-1.146a.5.5 0 1 0-.708.707l1.5 1.5a.5.5 0 0 0 .708 0l.547-.548 1.17 1.951a.5.5 0 0 0 .783.097l2-2a.5.5 0 0 0 .141-.425l-.465-3.252.624-.623c.855-.856 1.358-2.225 1.535-3.465.09-.627.1-1.25.019-1.794-.08-.528-.256-1.05-.604-1.399-.349-.348-.871-.525-1.4-.604a6.3 6.3 0 0 0-1.793.02C9.17.987 7.8 1.49 6.946 2.345l-.623.624-3.252-.465a.5.5 0 0 0-.425.141l-2 2a.5.5 0 0 0 .097.783l1.95 1.17-.547.547a.5.5 0 0 0 0 .708l1.5 1.5a.5.5 0 1 0 .708-.708L3.207 7.5l.647-.646zm3.245 9.34-.97-1.617 2.017-2.016.324 2.262zM3.423 5.87l2.016-2.016-2.262-.324-1.37 1.37zm-1.07 4.484a.5.5 0 1 0-.707-.708l-1 1a.5.5 0 1 0 .708.707zm1.5 1.5a.5.5 0 1 0-.707-.707l-2 2a.5.5 0 0 0 .708.707zm1.5 1.5a.5.5 0 1 0-.707-.708l-1 1a.5.5 0 1 0 .708.707zM9.5 6.749a1.249 1.249 0 1 0 0-2.498 1.249 1.249 0 0 0 0 2.498" clip-rule="evenodd"/></svg>
